src/Icon/svgs/Share.svg

<svg width="24" height="24" viewBox="0 0 24 24" fill="none" xmlns="http://www.w3.org/2000/svg">
<path fill-rule="evenodd" clip-rule="evenodd" d="M20 19V12H22V20C22 20.5523 21.5523 21 21 21H3C2.44772 21 2 20.5523 2 20V12H4V19H20ZM13 5.82871L16.5858 9.41553L18 8.00132L12 2L6 8.00132L7.41421 9.41553L11 5.82871V16.0013H13V5.82871Z" fill="#1B1C1D"/>
</svg>

<svg xmlns="http://www.w3.org/2000/svg" width="24" height="24" fill="none"  xmlns:v="https://vecta.io/nano"><path fill-rule="evenodd" d="M20 19v-7h2v8a1 1 0 0 1-1 1H3a1 1 0 0 1-1-1v-8h2v7h16zM13 5.829l3.586 3.587L18 8.001 12 2 6 8.001l1.414 1.414L11 5.829v10.173h2V5.829z" fill="#1b1c1d"/></svg>
